X: 78
T: Polska efter Per Hellstedt
T: (SvL Uppland nr. 78)
S: efter Per Hellstedt
O: Uppland
R: Polska
Z: Nils L, 2008-12-15
B: Svenska Låtar Uppland nr 78
B: http://www.smus.se/earkiv/fmk/browselarge.php?lang=sw&katalogid=Up+4&bildnr=00018
M: 3/4
L: 1/16
K: D
A2a2 a2(ba) (^ga)bc' | d'2a2a2f2f2d2 | (da)(fa) (da)(fa) (da)(fa) | (ef)(ed) (cd)cB A4 ::
ABcd ecAd fdAd | gfAd feAc edcB | ABcd ecAd fdAd | gfAd feAc e2>f2 |
g2gb f2fa e2eg | (fe)(dc) d8 :|

